X:1
T:Title
%%score { 1 | 2 }
L:1/8
M:9/8
K:Ab
V:1 treble nm="Grand Piano"
V:2 bass 
V:1
 z3 z3[Q:1/4=100] [Ec][=D_c][E=c] | [CA]3 [CE]3 [CA][EG][DF] | [CE]6 GFE | G3 [Gd]3 [Bd][Ac][GB] | %4
 c6 c_c=c | A3 A3 [Fd][Fc][FB] |[M:3/4] [DF]6 |[M:3/8] [FB][Fc][Fd] |[M:9/8] c3 A3 GFG | %9
[M:3/4] [CA]6 |[M:3/8] BAB |[M:9/8] c3 B3 BAB | [Ec]6 [CA][DB][Ec] | [Fd]3 [Ec]3 [=DF][DG][DA] | %14
 [EB]6 [Ec][=D_c][E=c] | [CA]3 [CE]3 [CA][EG][DF] | [CE]6 GFE | G3 [Gd]3 [EAc][CEA][DEB] | %18
[M:3/4] [CEA]6 |] %19
V:2
 z3 z3 [A,,A,][A,,A,][A,,A,] | [A,,E,]3 [A,,A,]3 [A,,A,][A,,A,][A,,A,] | %2
 [A,,A,]6 [E,B,D][E,A,D][E,G,D] | [E,B,D]3 [E,B,]3 [E,E][E,E][E,E] | [A,EA]6 [A,EA][A,=DA][A,EA] | %5
 [A,CE]3[K:bass] [F,CF]3 [D,D][D,A,][D,A,] |[M:3/4] [D,A,]6 |[M:3/8] [D,A,][C,A,][B,,A,] | %8
[M:9/8] [E,A,E]3 [F,A,C]3 [E,B,D][E,B,D][E,B,D] |[M:3/4] [A,,A,]6 |[M:3/8] [E,G,E][E,F,E][E,G,E] | %11
[M:9/8] [E,A,E]3 [E,G,E]3 [E,G,E][E,F,E][E,G,E] | [A,,A,]6 [A,,A,][A,,A,][A,,A,] | %13
 [A,,A,]3 [A,,A,]3 [B,,A,][B,,G,][B,,F,] | [E,G,]6 [A,,A,][A,,A,][A,,A,] | %15
 [A,,E,]3 [A,,A,]3 [A,,A,][A,,A,][A,,A,] | [A,,A,]6 [E,B,D][E,A,D][E,G,D] | %17
 [E,B,D]3 [E,B,]3 E,E,E, |[M:3/4] A,,6 |] %19

